X:186
T:Untitled. HA.185
M:C
L:1/8
Q:1/2=90
C:”J.A.”
S:Henry Atkinson’s original MS,Hartburn,N’umberland,1694.
O:England
A:Hartburn,Northumberland
N:No key sig. Plays OK as writ in C (or Gmix as root note is G) NBr
H:1/8
Z:vmp.Neil Brookes, Jan.2004
K:Gmix
“_no key sig – see notes”
Bc|d2g2d2g2|edeg e2g2|d2g2 dedB|ABAG G2:||
AB|c2cd e2dc|BABc d2 cB|AGAB cBcd|edege2A2|
c2 cde2dc|d2 de f2 ef|g3e gedB|ABAG G2|]

